X:1
T:Wynnstay, 84.84.88.84
T:Wynnstay, 84.84.88.84
T:John Ambrose Lloyd (1815-1874)
T:Public Domain Courtesy of the Cyber Hymnal™
C:John Ambrose Lloyd (1815-1874)
Z:Public Domain
Z:Courtesy of the Cyber Hymnal™
%%score ( 1 2 ) ( 3 4 )
L:1/8
Q:1/4=115
M:4/4
K:E
V:1 treble 
V:2 treble 
V:3 bass 
V:4 bass 
V:1
 [B,E]2 [EG]2 [EB]3 [EB] | [Ec]2 [DB]2 [EB]2 [B,G]2 | [CE]4 [DF]3 [DF] | [EG]8 | %4
 [B,E]2 [EG]2 [EB]3 [EB] | [Ec]2 [DB]2 [EB]2 [EG]2 | [Ge]4 [F^A]3 [FA] | [FB]8 | %8
 [EG]2 [FB]2 [Ee]3 [Ed] | [Ec]2 [DB]2 [EB]2 [EG]2 | [EB]2 [Ee]2 [Ec]3 [EB] | %11
 [DA]2 [EG]2 [EG]2 [DF]2 | [B,E]2 [EG]2 [EB]3 [EB] | [Ec]2 [DB]2 [EB]2 [B,G]2 | [CE]4 [EG]2 [DF]2 | %15
 E8 |] %16
V:2
 x8 | x8 | x8 | x8 | x8 | x8 | x8 | x8 | x8 | x8 | x8 | x8 | x8 | x8 | x8 | E8 |] %16
V:3
 [E,G,]2 [E,B,]2 [E,G,]3 [E,G,] | [A,,A,]2 [B,,F,]2 [E,G,]2 E,2 | [C,G,]4 [B,,B,]3 [B,,B,] | %3
 [E,B,]8 | [E,G,]2 [E,B,]2 [E,G,]3 [E,G,] | [A,,A,]2 [B,,F,]2 [E,G,]2 [E,B,]2 | %6
 [C,C]4 [F,C]3 [F,C] | [B,,D]8 | [E,B,]2 [D,B,]2 [C,G,]3 [B,,G,] | %9
 [A,,A,]2 [B,,F,]2 [E,G,]2 [E,B,]2 | [E,G,]2 [G,B,]2 A,3 [G,B,] | %11
 [F,B,]2 [E,B,]2 [B,,B,]2 [B,,B,]2 | [E,G,]2 [E,B,]2 [E,G,]3 [E,G,] | %13
 [A,,A,]2 [B,,F,]2 [E,G,]2 E,2 | [C,G,]4 [B,,B,]2 [B,,A,]2 | [E,G,]8 |] %16
V:4
 x8 | x6 E,2 | x8 | x8 | x8 | x8 | x8 | x8 | x8 | x8 | x4 A,3 x | x8 | x8 | x6 E,2 | x8 | x8 |] %16

